X:243
T:Gabriella's jig
C:Leonard Podolak
S:CD The Duhks (2005) par The Duhks
R:jig
M:6/8
L:1/8
K:G
GED DEG | ADD DCD | B2d cBA | AGE GED |
GED DEG | ADD DCD | B2d cBA | AGE G2G-|
GED DEG | ADD DCD | B2d cBA | AGE GED |
GED DEG | ADD DCD | B2d cBA | AGE GBd ||
|:e3 edB | d3d2D | EGE G2A | BAG ABd |
e3edB | d3d2 D | EGE G2A |1 BAF GBd :|2BAF G2G-||
